src/sources/forus-platform/resources/_platform-common/assets/img/features/icons/bi-tools/icon-4.svg

<svg width="59" height="58" viewBox="0 0 59 58" fill="none" xmlns="http://www.w3.org/2000/svg">
    <rect x="0.25" width="58" height="58" rx="8" fill="#F7F9FC"/>
    <path d="M39.3548 26.0147H44.4077C44.8728 26.0147 45.2498 25.6378 45.2498 25.1726C45.2498 24.7075 44.8728 24.3303 44.4077 24.3303H39.3548C38.8897 24.3303 38.5127 24.7075 38.5127 25.1726C38.5127 25.6378 38.8897 26.0147 39.3548 26.0147Z" fill="#2E3242"/>
    <path d="M44.4077 27.6986H39.3548C38.8897 27.6986 38.5127 28.0756 38.5127 28.5407C38.5127 29.0058 38.8897 29.3828 39.3548 29.3828H44.4077C44.8728 29.3828 45.2498 29.0058 45.2498 28.5407C45.2498 28.0756 44.8728 27.6986 44.4077 27.6986Z" fill="#2E3242"/>
    <path d="M44.4077 31.0677H39.3548C38.8897 31.0677 38.5127 31.4447 38.5127 31.9098C38.5127 32.3749 38.8897 32.7518 39.3548 32.7518H44.4077C44.8728 32.7518 45.2498 32.3749 45.2498 31.9098C45.2498 31.4447 44.8728 31.0677 44.4077 31.0677Z" fill="#2E3242"/>
    <path d="M32.6169 23.4883C32.6169 27.6743 29.2234 31.0678 25.0377 31.0678C20.8517 31.0678 17.4583 27.6743 17.4583 23.4883C17.4583 19.3026 20.8517 15.9091 25.0377 15.9091C29.2234 15.9091 32.6169 19.3026 32.6169 23.4883Z" fill="#305DFC"/>
    <path d="M30.0928 32.7522H19.4639C16.0321 32.7522 13.25 35.5343 13.25 38.9659V38.9661V40.3314C13.25 40.7968 13.627 41.1737 14.0921 41.1737H35.9879C36.453 41.1737 36.8299 40.7968 36.8299 40.3314V39.4893C36.8299 35.7685 33.8137 32.7522 30.0928 32.7522Z" fill="#305DFC"/>
</svg>

<svg width="59" height="58" fill="none" xmlns="http://www.w3.org/2000/svg"><rect x=".25" width="58" height="58" rx="8" fill="#F7F9FC"/><path d="M39.355 26.015h5.053a.842.842 0 1 0 0-1.685h-5.053a.842.842 0 0 0 0 1.685ZM44.408 27.699h-5.053a.842.842 0 1 0 0 1.684h5.053a.842.842 0 1 0 0-1.684ZM44.408 31.068h-5.053a.842.842 0 1 0 0 1.684h5.053a.842.842 0 1 0 0-1.684Z" fill="#2E3242"/><path d="M32.617 23.488a7.58 7.58 0 1 1-15.16 0 7.58 7.58 0 0 1 15.16 0ZM30.093 32.752h-10.63a6.214 6.214 0 0 0-6.213 6.214v1.365c0 .466.377.843.842.843h21.896a.842.842 0 0 0 .842-.843v-.842a6.737 6.737 0 0 0-6.737-6.737Z" fill="#305DFC"/></svg>
